build/assets/images/svg/food/fish/moreprodukty_Japan.svg

<svg width="28" height="28" viewBox="0 0 28 28" fill="none" xmlns="http://www.w3.org/2000/svg">
<path d="M3.26738 11.9425C3.31769 12.0971 3.39826 12.2403 3.50442 12.3637C3.61059 12.4872 3.74025 12.5885 3.88593 12.6618L4.4753 12.9596L4.87343 13.161L3.81871 13.8309C3.76671 13.8625 3.72156 13.9041 3.6859 13.9533C3.65024 14.0025 3.62479 14.0582 3.61104 14.1173C3.59729 14.1764 3.59552 14.2377 3.60583 14.2975C3.61613 14.3572 3.63831 14.4144 3.67106 14.4655C3.70381 14.5167 3.74648 14.5608 3.79657 14.5953C3.84665 14.6299 3.90315 14.6541 3.96276 14.6666C4.02236 14.6791 4.08388 14.6797 4.1437 14.6682C4.20352 14.6568 4.26045 14.6336 4.31115 14.6L5.82236 13.6405L8.47113 14.9803C8.64495 15.0686 8.83724 15.1149 9.03236 15.1153C9.16387 15.115 9.29453 15.0941 9.41954 15.0535C9.57509 15.0036 9.71916 14.9234 9.8434 14.8177C9.96764 14.712 10.0696 14.5828 10.1434 14.4375L12.1288 10.5455C12.2033 10.3995 12.2479 10.2401 12.2598 10.0767C12.2718 9.91328 12.251 9.74913 12.1986 9.59383L15.6936 7.37436L23.4925 5.31213C23.5507 5.29676 23.6052 5.27013 23.6531 5.23377C23.7009 5.19741 23.7411 5.15202 23.7713 5.10019C23.8015 5.04837 23.8212 4.99112 23.8292 4.93172C23.8372 4.87233 23.8334 4.81194 23.8179 4.75402C23.8025 4.69609 23.7758 4.64176 23.7392 4.59413C23.7027 4.54649 23.6571 4.50649 23.6051 4.47639C23.5531 4.4463 23.4956 4.42671 23.4359 4.41874C23.3763 4.41077 23.3156 4.41458 23.2575 4.42995L18.2361 5.75737L22.8297 2.84202C22.9323 2.77699 23.0047 2.67402 23.0311 2.55578C23.0575 2.43754 23.0357 2.3137 22.9704 2.21151C22.905 2.10932 22.8017 2.03715 22.6829 2.01088C22.5642 1.9846 22.4398 2.00637 22.3372 2.0714L15.3184 6.52643L9.80829 7.9841L6.99693 6.56223C6.85145 6.48859 6.69283 6.44422 6.53012 6.43165C6.36741 6.41907 6.20382 6.43854 6.04867 6.48895C5.89352 6.53936 5.74987 6.61971 5.62592 6.72542C5.50197 6.83113 5.40014 6.96013 5.32627 7.10504L3.34086 10.997C3.26627 11.1419 3.22137 11.3001 3.20875 11.4624C3.19614 11.6247 3.21607 11.7879 3.26738 11.9425ZM5.29969 12.353L7.58109 7.8798L10.2293 9.21916L9.82132 10.0199L5.77181 12.5917L5.29969 12.353ZM9.00527 11.6203L7.94794 13.6923L6.7197 13.0696L9.00527 11.6203ZM9.32522 14.0245C9.30584 14.0625 9.27911 14.0964 9.24656 14.1242C9.21402 14.152 9.17629 14.1731 9.13554 14.1864C9.09479 14.1996 9.05182 14.2048 9.00908 14.2015C8.96634 14.1982 8.92467 14.1865 8.88645 14.1672L8.76504 14.1054L10.5248 10.655L11.2929 10.1672L9.32522 14.0245ZM12.7749 8.14445L11.5998 8.89068L11.5826 8.88082L11.0542 8.61357L11.0386 8.60527L12.7749 8.14445ZM4.15899 11.4137L6.1444 7.52174C6.16384 7.48364 6.19061 7.44973 6.22321 7.42194C6.2558 7.39416 6.29358 7.37303 6.33437 7.35978C6.37516 7.34653 6.41817 7.34141 6.46095 7.34471C6.50373 7.34802 6.54544 7.35968 6.58369 7.37903L6.76452 7.47036L4.48312 11.9436L4.3023 11.8517C4.26406 11.8324 4.23002 11.8058 4.20212 11.7734C4.17422 11.741 4.15301 11.7034 4.1397 11.6628C4.12639 11.6222 4.12125 11.5794 4.12456 11.5369C4.12787 11.4943 4.13957 11.4528 4.15899 11.4148V11.4137Z" fill="#203686"/>
<path d="M14.8291 24.1565H13.1688C13.1074 24.1544 13.0462 24.1647 12.9888 24.1867C12.9315 24.2087 12.8792 24.2419 12.835 24.2845C12.7908 24.327 12.7557 24.3779 12.7317 24.4343C12.7077 24.4906 12.6953 24.5512 12.6953 24.6124C12.6953 24.6736 12.7077 24.7342 12.7317 24.7905C12.7557 24.8468 12.7908 24.8978 12.835 24.9403C12.8792 24.9829 12.9315 25.0161 12.9888 25.0381C13.0462 25.0601 13.1074 25.0703 13.1688 25.0683H14.8291C14.8905 25.0703 14.9517 25.0601 15.009 25.0381C15.0664 25.0161 15.1187 24.9829 15.1629 24.9403C15.2071 24.8978 15.2422 24.8468 15.2662 24.7905C15.2902 24.7342 15.3025 24.6736 15.3025 24.6124C15.3025 24.5512 15.2902 24.4906 15.2662 24.4343C15.2422 24.3779 15.2071 24.327 15.1629 24.2845C15.1187 24.2419 15.0664 24.2087 15.009 24.1867C14.9517 24.1647 14.8905 24.1544 14.8291 24.1565Z" fill="#203686"/>
<path d="M23.5656 24.4141H21.9053C21.8452 24.4141 21.7856 24.4259 21.73 24.4488C21.6745 24.4717 21.624 24.5053 21.5814 24.5477C21.5389 24.59 21.5052 24.6403 21.4821 24.6956C21.4591 24.751 21.4473 24.8103 21.4473 24.8702C21.4473 24.9301 21.4591 24.9894 21.4821 25.0448C21.5052 25.1001 21.5389 25.1504 21.5814 25.1927C21.624 25.2351 21.6745 25.2687 21.73 25.2916C21.7856 25.3145 21.8452 25.3263 21.9053 25.3263H23.5656C23.687 25.3263 23.8035 25.2783 23.8894 25.1927C23.9753 25.1072 24.0236 24.9912 24.0236 24.8702C24.0236 24.7492 23.9753 24.6332 23.8894 24.5477C23.8035 24.4621 23.687 24.4141 23.5656 24.4141Z" fill="#203686"/>
<path d="M26.542 22.7584H25.3398V18.5291C25.3395 18.2232 25.2174 17.9299 25.0002 17.7135C24.783 17.4972 24.4885 17.3754 24.1813 17.375H19.6279C19.3207 17.3754 19.0262 17.4971 18.8089 17.7135C18.5916 17.9298 18.4694 18.2231 18.469 18.5291V22.2286H17.4351V18.5291C17.4347 18.2231 17.3125 17.9298 17.0952 17.7135C16.878 17.4971 16.5834 17.3754 16.2762 17.375H11.7238C11.4166 17.3754 11.122 17.4971 10.9048 17.7135C10.6875 17.9298 10.5653 18.2231 10.5649 18.5291V22.2286H9.52996V18.5291C9.52955 18.2233 9.40746 17.9302 9.19043 17.7139C8.9734 17.4975 8.67913 17.3757 8.37207 17.375H3.81866C3.51141 17.3754 3.21687 17.4971 2.99962 17.7135C2.78237 17.9298 2.66013 18.2231 2.65972 18.5291V22.7584H1.45805C1.39788 22.7583 1.33829 22.7701 1.28268 22.793C1.22708 22.8159 1.17656 22.8495 1.13401 22.8918C1.09146 22.9342 1.05772 22.9845 1.03473 23.0399C1.01173 23.0953 0.999932 23.1546 1 23.2145V26.5466C1 26.6676 1.04826 26.7836 1.13416 26.8691C1.22006 26.9547 1.33657 27.0027 1.45805 27.0027H26.542C26.6634 27.0027 26.7799 26.9547 26.8658 26.8691C26.9517 26.7836 27 26.6676 27 26.5466V23.2119C26.9994 23.0914 26.9509 22.9759 26.8651 22.8909C26.7792 22.8059 26.663 22.7583 26.542 22.7584ZM19.3861 22.7584V20.157H24.4221V22.7584H19.3861ZM19.629 18.2899H24.1813C24.2449 18.2904 24.3058 18.3158 24.3508 18.3605C24.3958 18.4052 24.4214 18.4658 24.4221 18.5291V19.2447H19.3861V18.5291C19.3861 18.4651 19.4116 18.4038 19.4569 18.3585C19.5022 18.3132 19.5637 18.2876 19.6279 18.2873L19.629 18.2899ZM11.7238 18.2899H16.2762C16.3406 18.2899 16.4024 18.3154 16.4479 18.3607C16.4934 18.4061 16.519 18.4676 16.519 18.5317V19.2473H11.481V18.5291C11.481 18.4973 11.4873 18.4659 11.4995 18.4366C11.5117 18.4072 11.5296 18.3806 11.5521 18.3581C11.5747 18.3357 11.6014 18.3178 11.6309 18.3057C11.6603 18.2935 11.6919 18.2873 11.7238 18.2873V18.2899ZM11.481 20.158H16.519V22.2296H11.481V20.158ZM3.82074 18.2899H8.37207C8.43647 18.2899 8.49824 18.3154 8.54378 18.3607C8.58932 18.4061 8.6149 18.4676 8.6149 18.5317V19.2473H3.57791V18.5291C3.5779 18.4653 3.6032 18.4041 3.64829 18.3588C3.69338 18.3135 3.75461 18.2878 3.81866 18.2873L3.82074 18.2899ZM3.57791 20.157H8.61595V22.7584H3.57791V20.157ZM1.9161 23.6681H8.61386V26.0889H1.9161V23.6681ZM18.47 26.0889H9.52996V23.1408H18.47V26.0889ZM26.0839 26.0889H19.3861V23.6681H26.0839V26.0889Z" fill="#203686"/>
<path d="M6.09485 24.4141H4.43461C4.31313 24.4141 4.19662 24.4621 4.11072 24.5477C4.02482 24.6332 3.97656 24.7492 3.97656 24.8702C3.97656 24.9912 4.02482 25.1072 4.11072 25.1927C4.19662 25.2783 4.31313 25.3263 4.43461 25.3263H6.09485C6.15501 25.3263 6.21457 25.3145 6.27014 25.2916C6.32571 25.2687 6.37621 25.2351 6.41874 25.1927C6.46128 25.1504 6.49502 25.1001 6.51804 25.0448C6.54106 24.9894 6.5529 24.9301 6.5529 24.8702C6.5529 24.8103 6.54106 24.751 6.51804 24.6956C6.49502 24.6403 6.46128 24.59 6.41874 24.5477C6.37621 24.5053 6.32571 24.4717 6.27014 24.4488C6.21457 24.4259 6.15501 24.4141 6.09485 24.4141Z" fill="#203686"/>
</svg>

<svg width="28" height="28" fill="none" xmlns="http://www.w3.org/2000/svg"><path d="M3.267 11.943a1.23 1.23 0 00.619.719l.59.298.397.201-1.054.67a.457.457 0 00-.148.635.456.456 0 00.473.202.459.459 0 00.167-.068l1.511-.96 2.65 1.34a1.245 1.245 0 001.671-.543l1.986-3.891a1.228 1.228 0 00.07-.952l3.495-2.22 7.798-2.062a.46.46 0 00.337-.38.453.453 0 00-.224-.456.46.46 0 00-.348-.046l-5.02 1.327 4.593-2.915a.457.457 0 10-.493-.77l-7.019 4.454-5.51 1.458-2.811-1.422a1.246 1.246 0 00-1.67.543L3.34 10.997a1.224 1.224 0 00-.074.946zm2.033.41L7.58 7.88l2.648 1.34-.408.8-4.05 2.572-.471-.239zm3.705-.733l-1.057 2.072-1.228-.622 2.285-1.45zm.32 2.405a.326.326 0 01-.439.142l-.121-.062 1.76-3.45.768-.488-1.968 3.857zm3.45-5.88L11.6 8.89l-.017-.01-.529-.267-.015-.009 1.736-.46zm-8.616 3.269l1.985-3.892a.326.326 0 01.44-.143l.18.091-2.28 4.474-.182-.092a.326.326 0 01-.143-.437v-.001zM14.83 24.157h-1.661a.46.46 0 00-.474.455.454.454 0 00.474.456h1.66a.46.46 0 00.473-.456.454.454 0 00-.473-.455zm8.736.257h-1.66a.46.46 0 00-.424.282.455.455 0 00.423.63h1.66a.459.459 0 00.459-.456.455.455 0 00-.458-.456z" fill="#203686"/><path d="M26.542 22.758H25.34V18.53c0-.306-.123-.6-.34-.816a1.163 1.163 0 00-.819-.338h-4.553a1.158 1.158 0 00-1.159 1.154v3.7h-1.034v-3.7c0-.306-.122-.6-.34-.816a1.163 1.163 0 00-.819-.338h-4.552c-.307 0-.602.122-.82.338-.216.217-.339.51-.34.816v3.7H9.53v-3.7a1.163 1.163 0 00-1.158-1.154H3.82a1.153 1.153 0 00-1.159 1.154v4.23H1.458a.459.459 0 00-.458.456v3.332a.455.455 0 00.458.456h25.084a.459.459 0 00.458-.456v-3.335a.455.455 0 00-.458-.454zm-7.156 0v-2.601h5.036v2.601h-5.036zm.243-4.468h4.552a.243.243 0 01.241.24v.715h-5.036v-.716a.241.241 0 01.242-.242l.001.003zm-7.905 0h4.552a.243.243 0 01.243.242v.715h-5.038v-.718a.24.24 0 01.15-.223.242.242 0 01.093-.019v.003zm-.243 1.868h5.038v2.072h-5.038v-2.072zm-7.66-1.868h4.551a.244.244 0 01.243.242v.715H3.578v-.718a.241.241 0 01.24-.242l.003.003zm-.243 1.867h5.038v2.601H3.578v-2.601zm-1.662 3.511h6.698v2.42H1.916v-2.42zm16.554 2.42H9.53v-2.947h8.94v2.948zm7.614 0h-6.698v-2.42h6.698v2.42z" fill="#203686"/><path d="M6.095 24.414h-1.66a.459.459 0 00-.458.456.455.455 0 00.458.456h1.66a.46.46 0 00.458-.456.455.455 0 00-.458-.456z" fill="#203686"/></svg>
